X:16153
%11540
T:My First Step Polka. GHW.016
M:2/4
L:1/16
Q:1/4=110
S:George H.Watson,MS,Swanton Abbott,Norfolk,1850-1880
R:Polka
O:England
A:Norfolk
N:DC marked at end of tun
Z:vmp.Taz Tarry
K:C
e2g2 gage|c2e2 e4|d2f2 fgfB|c2a2g4|e2g2 gage|c2e2e4|d2g2 fga2|g2g2g2 z f
|!
e2g2 gage|c2e2 e4|d2f2 fgfB|c2a2g4|e2g2 gage|c2e
